src/assets/img/logos/client-logo-whyy.svg

<svg width="335" height="112" viewBox="0 0 335 112" xmlns="http://www.w3.org/2000/svg"><g id="Page-1" stroke="none" stroke-width="1" fill-rule="evenodd"><g id="client-logo-whyy" fill-rule="nonzero"><path d="M278.5.3c-21.3 0-39.7 12-49.1 29.4h25l6.9 17.7h.7c.7-2 1.3-3.9 2.1-5.9l4.5-11.9H294l-21.3 35.6V92h-22.1V65.2l-21.3-34.8c-4 7.8-6.1 16.6-6.1 25.3 0 30.6 24.9 55.5 55.5 55.5s55.5-24.9 55.5-55.5C333.9 25.1 309.1.3 278.5.3ZM23.4 30.1l7.8 37h.5c.5-3.8.9-7.7 2-11.4l6.6-25.6h17.4l8.5 37h.5c.3-3.6.7-7.4 1.6-10.9l6.3-26h23.6L76.2 92H56.4l-7.1-33.6h-.7c-.2 3.2-.5 6.3-1.2 9.3L41.1 92H21.9L0 30.2l23.4-.1Zm78 0h21.8v20.8h14V30.1H159v61.8h-21.8V70.4h-14v21.5h-21.8V30.1Zm86.3 0 6.9 17.2h.7c.7-2 1.3-3.9 2.1-5.9l4.5-11.3h25.4L206 65.3V92h-22.1V65.3l-21.6-35.2h25.4Z" id="Shape"/></g></g></svg>

<?xml version="1.0" encoding="UTF-8"?>
<svg width="335px" height="112px" viewBox="0 0 335 112" version="1.1" xmlns="http://www.w3.org/2000/svg" xmlns:xlink="http://www.w3.org/1999/xlink">
    <!-- Generator: Sketch 61.2 (89653) - https://sketch.com -->
    <title>client-logo-whyy</title>
    <desc>Created with Sketch.</desc>
    <g id="Page-1" stroke="none" stroke-width="1" fill="none" fill-rule="evenodd">
        <g id="client-logo-whyy" fill="#13283A" fill-rule="nonzero">
            <path d="M278.5,0.3 C257.2,0.3 238.8,12.3 229.4,29.7 L254.4,29.7 L261.3,47.4 L262,47.4 C262.7,45.4 263.3,43.5 264.1,41.5 L268.6,29.6 L294,29.6 L272.7,65.2 L272.7,92 L250.6,92 L250.6,65.2 L229.3,30.4 C225.3,38.2 223.2,47 223.2,55.7 C223.2,86.3 248.1,111.2 278.7,111.2 C309.3,111.2 334.2,86.3 334.2,55.7 C333.9,25.1 309.1,0.3 278.5,0.3 L278.5,0.3 Z M23.4,30.1 L31.2,67.1 L31.7,67.1 C32.2,63.3 32.6,59.4 33.7,55.7 L40.3,30.1 L57.7,30.1 L66.2,67.1 L66.7,67.1 C67,63.5 67.4,59.7 68.3,56.2 L74.6,30.2 L98.2,30.2 L76.2,92 L56.4,92 L49.3,58.4 L48.6,58.4 C48.4,61.6 48.1,64.7 47.4,67.7 L41.1,92 L21.9,92 L0,30.2 L23.4,30.1 Z M101.4,30.1 L123.2,30.1 L123.2,50.9 L137.2,50.9 L137.2,30.1 L159,30.1 L159,91.9 L137.2,91.9 L137.2,70.4 L123.2,70.4 L123.2,91.9 L101.4,91.9 L101.4,30.1 L101.4,30.1 Z M187.7,30.1 L194.6,47.3 L195.3,47.3 C196,45.3 196.6,43.4 197.4,41.4 L201.9,30.1 L227.3,30.1 L206,65.3 L206,92 L183.9,92 L183.9,65.3 L162.3,30.1 L187.7,30.1 L187.7,30.1 Z" id="Shape"></path>
        </g>
    </g>
</svg>
